packages/foundations/assets/icons/functional/images/maps/navigation_to_right_20.svg

<svg width="20" height="20" viewBox="0 0 20 20" fill="none" xmlns="http://www.w3.org/2000/svg">
<g clip-path="url(#clip0_2213_5411)">
<path fill-rule="evenodd" clip-rule="evenodd" d="M10.0953 2.04999C10.3607 2.04999 10.6261 2.14941 10.7919 2.34825L14.7014 6.25383C14.9005 6.4196 15 6.6848 15 6.94999C15 7.18201 14.9005 7.4472 14.7014 7.64614L10.6919 11.6517C10.5261 11.8174 10.2607 11.95 9.9953 11.95C9.4313 11.95 9 11.486 9 10.9556C9 10.6904 9.0995 10.4252 9.2986 10.2262L11.578 7.94899L8 7.94999C7.44772 7.94999 7 8.3977 7 8.94999V16.95C7 17.5023 6.55228 17.95 6 17.95C5.44772 17.95 5 17.5023 5 16.95V8.94999C5 7.29313 6.34315 5.94999 8 5.94999L11.576 5.94899L9.3986 3.77374C9.20125 3.56118 9.10172 3.31807 9.1 3.04441C9.1 2.51402 9.5313 2.04999 10.0953 2.04999Z" fill="#1A1C1F"/>
</g>
<defs>
<clipPath id="clip0_2213_5411">
<rect width="20" height="20" fill="white"/>
</clipPath>
</defs>
</svg>

<svg xmlns="http://www.w3.org/2000/svg" width="20" height="20" fill="none"><g clip-path="url(#a)"><path fill="#1A1C1F" fill-rule="evenodd" d="M10.095 2.05c.266 0 .531.1.697.298l3.91 3.906c.198.166.298.43.298.696 0 .232-.1.497-.299.696l-4.01 4.006a1.03 1.03 0 0 1-.696.298A1 1 0 0 1 9 10.956c0-.266.1-.53.299-.73l2.279-2.277L8 7.95a1 1 0 0 0-1 1v8a1 1 0 1 1-2 0v-8a3 3 0 0 1 3-3l3.576-.001-2.177-2.175a1.05 1.05 0 0 1-.299-.73c0-.53.431-.994.995-.994" clip-rule="evenodd"/></g><defs><clipPath id="a"><path fill="#fff" d="M0 0h20v20H0z"/></clipPath></defs></svg>
